X:64
T:Col. Mackay's Reel
C:R. Petrie
S:Petrie's Second Collection of Strathspey Reels and Country Dances &c.
Z:Steve Wyrick , 6/11/04
N:Petrie's Second Collection, page 22
% No listing for this tune in Gore's Index
L:1/8
M:C
R:Reel
K:C
e|c(CCE)        G3_B|AFEC  DF_B,D      |(C/D/E/F/ G)E G2 (cG)|A(agf)  ecc  :|
e|(c/d/e/f/ g)c acgc|ecgc  f(dde)      |(c/d/e/f/ g)c acgc   |fdec    G(cce)|
  (c/d/e/f/ g)c acgc|fdec (B/A/B/c/ d)e| cGEC         FAG_B  |A(aTgf) ecc  |]
